X: 26
T: Star Of Munster, The
Z: SamiC
S: https://thesession.org/tunes/197#setting50449
R: reel
M: 4/4
L: 1/8
K: Ador
|:c2 Ac B2 GB|AGEF GEDG|EAAB cBcd|eaaf gfed|
cBAc BAGB|AGEF GEDG|EAAB cded|1 cABG A2 ed:|2 cABG A2 Bd||
|:eaab ageg|agbg agef|[g2B2] ga gedg|geaf gedg|
eaab ageg|agbg agef|[g2B2] gf [a2A2] ga|b3 a gedB:|

